polaris-icons/icons/new-icons/AnalyticsMajor.svg

<svg width="20" height="20" viewBox="0 0 20 20" fill="none" xmlns="http://www.w3.org/2000/svg">
<path fill-rule="evenodd" clip-rule="evenodd" d="M9.9519 3.50005L10 3.5001L10.0481 3.50005C10.23 3.49978 10.4193 3.49949 10.5914 3.53372C11.2856 3.67181 11.8283 4.21448 11.9664 4.90869C12.0006 5.08077 12.0003 5.27008 12 5.452V14.5482C12.0003 14.7301 12.0006 14.9194 11.9664 15.0915C11.8283 15.7857 11.2856 16.3284 10.5914 16.4665C10.4193 16.5007 10.23 16.5004 10.0481 16.5001L10 16.5001L9.9519 16.5001C9.76998 16.5004 9.58068 16.5007 9.40859 16.4665C8.71438 16.3284 8.17171 15.7857 8.03363 15.0915C7.9994 14.9194 7.99968 14.7301 7.99995 14.5482L8 14.5001V5.5001L7.99995 5.45199C7.99968 5.27008 7.9994 5.08077 8.03363 4.90869C8.17171 4.21448 8.71438 3.67181 9.40859 3.53372C9.58068 3.49949 9.76998 3.49978 9.9519 3.50005ZM9.69929 5.00529C9.60169 5.02551 9.52541 5.10179 9.5052 5.19938C9.50475 5.20301 9.50314 5.21792 9.50196 5.25231C9.5001 5.30666 9.5 5.37885 9.5 5.5001V14.5001C9.5 14.6213 9.5001 14.6935 9.50196 14.7479C9.50314 14.7823 9.50475 14.7972 9.5052 14.8008C9.52541 14.8984 9.60169 14.9747 9.69929 14.9949C9.70291 14.9953 9.71782 14.997 9.75222 14.9981C9.80657 15 9.87875 15.0001 10 15.0001C10.1213 15.0001 10.1934 15 10.2478 14.9981C10.2822 14.997 10.2971 14.9953 10.3007 14.9949C10.3983 14.9747 10.4746 14.8984 10.4948 14.8008C10.4952 14.7972 10.4969 14.7823 10.498 14.7479C10.4999 14.6935 10.5 14.6213 10.5 14.5001V5.5001C10.5 5.37885 10.4999 5.30666 10.498 5.25231C10.4969 5.21792 10.4952 5.20301 10.4948 5.19938C10.4746 5.10179 10.3983 5.02551 10.3007 5.00529C10.2971 5.00485 10.2822 5.00324 10.2478 5.00206C10.1934 5.0002 10.1213 5.0001 10 5.0001C9.87875 5.0001 9.80657 5.0002 9.75222 5.00206C9.71782 5.00324 9.70291 5.00485 9.69929 5.00529Z" fill="#4A4A4A"/>
<path fill-rule="evenodd" clip-rule="evenodd" d="M5.4519 9.00005L5.5 9.0001L5.5481 9.00005C5.73002 8.99978 5.91932 8.99949 6.09141 9.03372C6.78562 9.17181 7.32829 9.71448 7.46637 10.4087C7.5006 10.5808 7.50032 10.7701 7.50005 10.952L7.5 11.0001V14.5001L7.50005 14.5482C7.50032 14.7301 7.5006 14.9194 7.46637 15.0915C7.32829 15.7857 6.78562 16.3284 6.09141 16.4665C5.91932 16.5007 5.73002 16.5004 5.5481 16.5001L5.5 16.5001L5.4519 16.5001C5.26998 16.5004 5.08068 16.5007 4.90859 16.4665C4.21438 16.3284 3.67171 15.7857 3.53363 15.0915C3.4994 14.9194 3.49968 14.7301 3.49995 14.5482V10.952C3.49968 10.7701 3.4994 10.5808 3.53363 10.4087C3.67171 9.71448 4.21438 9.17181 4.90859 9.03372C5.08068 8.99949 5.26998 8.99978 5.4519 9.00005ZM5.19929 10.5053C5.10169 10.5255 5.02541 10.6018 5.0052 10.6994C5.00475 10.703 5.00314 10.7179 5.00196 10.7523C5.0001 10.8067 5 10.8788 5 11.0001V14.5001C5 14.6213 5.0001 14.6935 5.00196 14.7479C5.00314 14.7823 5.00475 14.7972 5.0052 14.8008C5.02541 14.8984 5.10169 14.9747 5.19929 14.9949C5.2029 14.9953 5.21781 14.997 5.25222 14.9981C5.30657 15 5.37875 15.0001 5.5 15.0001C5.62125 15.0001 5.69343 15 5.74778 14.9981C5.78219 14.997 5.7971 14.9953 5.80071 14.9949C5.89831 14.9747 5.97459 14.8984 5.9948 14.8008C5.99525 14.7972 5.99686 14.7823 5.99804 14.7479C5.9999 14.6935 6 14.6213 6 14.5001V11.0001C6 10.8788 5.9999 10.8067 5.99804 10.7523C5.99686 10.7179 5.99525 10.703 5.9948 10.6994C5.97459 10.6018 5.89831 10.5255 5.80071 10.5053C5.79709 10.5048 5.78218 10.5032 5.74778 10.5021C5.69343 10.5002 5.62125 10.5001 5.5 10.5001C5.37875 10.5001 5.30657 10.5002 5.25222 10.5021C5.21782 10.5032 5.20291 10.5048 5.19929 10.5053Z" fill="#4A4A4A"/>
<path fill-rule="evenodd" clip-rule="evenodd" d="M14.5 6.0001L14.4519 6.00005C14.27 5.99978 14.0807 5.99949 13.9086 6.03372C13.2144 6.17181 12.6717 6.71448 12.5336 7.40869C12.4994 7.58077 12.4997 7.77008 12.5 7.95199V14.5482C12.4997 14.7301 12.4994 14.9194 12.5336 15.0915C12.6717 15.7857 13.2144 16.3284 13.9086 16.4665C14.0807 16.5007 14.27 16.5004 14.4519 16.5001L14.5 16.5001L14.5481 16.5001C14.73 16.5004 14.9193 16.5007 15.0914 16.4665C15.7856 16.3284 16.3283 15.7857 16.4664 15.0915C16.5006 14.9194 16.5003 14.7301 16.5 14.5482L16.5 14.5001V8.0001L16.5 7.952C16.5003 7.77008 16.5006 7.58077 16.4664 7.40869C16.3283 6.71448 15.7856 6.17181 15.0914 6.03372C14.9193 5.99949 14.73 5.99978 14.5481 6.00005L14.5 6.0001ZM14.0052 7.69938C14.0254 7.60179 14.1017 7.52551 14.1993 7.50529C14.2029 7.50485 14.2178 7.50324 14.2522 7.50206C14.3066 7.5002 14.3787 7.5001 14.5 7.5001C14.6212 7.5001 14.6934 7.5002 14.7478 7.50206C14.7822 7.50324 14.7971 7.50485 14.8007 7.50529C14.8983 7.52551 14.9746 7.60179 14.9948 7.69939C14.9952 7.70301 14.9969 7.71792 14.998 7.75231C14.9999 7.80666 15 7.87885 15 8.0001V14.5001C15 14.6213 14.9999 14.6935 14.998 14.7479C14.9969 14.7823 14.9952 14.7972 14.9948 14.8008C14.9746 14.8984 14.8983 14.9747 14.8007 14.9949C14.7971 14.9953 14.7822 14.997 14.7478 14.9981C14.6934 15 14.6212 15.0001 14.5 15.0001C14.3787 15.0001 14.3066 15 14.2522 14.9981C14.2178 14.997 14.2029 14.9953 14.1993 14.9949C14.1017 14.9747 14.0254 14.8984 14.0052 14.8008C14.0048 14.7972 14.0031 14.7823 14.002 14.7479C14.0001 14.6935 14 14.6213 14 14.5001V8.0001C14 7.87885 14.0001 7.80666 14.002 7.75231C14.0031 7.71792 14.0048 7.70301 14.0052 7.69938L14.0048 7.70132C14.0052 7.69952 14.0052 7.69938 14.0052 7.69938C14.0052 7.69953 14.0052 7.69909 14.0052 7.69938Z" fill="#4A4A4A"/>
</svg>

<svg viewBox="0 0 20 20" xmlns="http://www.w3.org/2000/svg"><path fill-rule="evenodd" d="M9.952 3.5h.096c.182 0 .371 0 .543.034a1.75 1.75 0 0 1 1.375 1.375c.035.172.034.361.034.543v9.096c0 .182 0 .371-.034.543a1.75 1.75 0 0 1-1.375 1.376 2.825 2.825 0 0 1-.543.033h-.096c-.182 0-.371 0-.543-.034a1.75 1.75 0 0 1-1.375-1.375 2.825 2.825 0 0 1-.034-.543v-9.096c0-.182 0-.371.034-.543a1.75 1.75 0 0 1 1.375-1.375c.172-.035.361-.034.543-.034Zm-.253 1.505a.25.25 0 0 0-.194.194 8.217 8.217 0 0 0-.005.3v9.001a8.221 8.221 0 0 0 .005.3.25.25 0 0 0 .194.195l.053.003c.055.002.127.002.248.002s.193 0 .248-.002l.053-.003a.25.25 0 0 0 .194-.194l.003-.053a8.05 8.05 0 0 0 .002-.248v-9c0-.121 0-.193-.002-.248l-.003-.053a.25.25 0 0 0-.194-.194 8.217 8.217 0 0 0-.3-.005 8.216 8.216 0 0 0-.302.005Z" fill="#5C5F62"/><path fill-rule="evenodd" d="M5.452 9h.096c.182 0 .371 0 .543.034a1.75 1.75 0 0 1 1.375 1.375c.035.172.034.361.034.543v3.596c0 .182 0 .371-.034.543a1.75 1.75 0 0 1-1.375 1.376 2.825 2.825 0 0 1-.543.033h-.096c-.182 0-.371 0-.543-.034a1.75 1.75 0 0 1-1.375-1.375 2.825 2.825 0 0 1-.034-.543v-3.596c0-.182 0-.371.034-.543a1.75 1.75 0 0 1 1.375-1.375c.172-.035.361-.034.543-.034Zm-.253 1.505a.25.25 0 0 0-.194.194 8.217 8.217 0 0 0-.005.3v3.501a8.221 8.221 0 0 0 .005.3.25.25 0 0 0 .194.195l.053.003c.055.002.127.002.248.002s.193 0 .248-.002l.053-.003a.25.25 0 0 0 .194-.194l.003-.053c.002-.054.002-.127.002-.248v-3.5a8.217 8.217 0 0 0-.005-.3.25.25 0 0 0-.194-.195 8.045 8.045 0 0 0-.3-.005 8.045 8.045 0 0 0-.302.005Z" fill="#5C5F62"/><path fill-rule="evenodd" d="M14.5 6h-.048c-.182 0-.371 0-.543.034a1.75 1.75 0 0 0-1.375 1.375 2.825 2.825 0 0 0-.034.543v6.596c0 .182 0 .371.034.543a1.75 1.75 0 0 0 1.375 1.376c.172.034.361.033.543.033h.096c.182 0 .371 0 .543-.034a1.75 1.75 0 0 0 1.375-1.375c.035-.172.034-.36.034-.543v-6.596c0-.182 0-.371-.034-.543a1.75 1.75 0 0 0-1.375-1.375c-.172-.035-.361-.034-.543-.034h-.048Zm-.495 1.7a.25.25 0 0 1 .194-.195 8.217 8.217 0 0 1 .3-.005 8.221 8.221 0 0 1 .302.005.25.25 0 0 1 .194.194l.003.053c.002.055.002.127.002.248v6.5c0 .121 0 .194-.002.248l-.003.053a.25.25 0 0 1-.194.194l-.053.003a8.05 8.05 0 0 1-.248.002c-.121 0-.193 0-.248-.002l-.053-.003a.25.25 0 0 1-.194-.194l-.003-.053a8.05 8.05 0 0 1-.002-.248v-6.5c0-.121 0-.193.002-.248l.003-.053v.002-.002Z" fill="#5C5F62"/></svg>
